images/code-lab-logo-copy-v2.svg

<svg height="138" viewBox="0 0 485 138" width="485" xmlns="http://www.w3.org/2000/svg"><g fill="#4a90e2" fill-rule="evenodd" transform=""><path d="m101.162588 96.3780952c5.387742-.5553297 9.475171-5.1796703 9.289249-10.7295604-.185351-5.5493223-4.830546-9.9891209-10.40421-9.9891209h-.3712733c-5.7601559.1851099-10.2188587 4.9945604-10.0329368 10.7289927.1859218 2.774945 1.3003124 5.1796703 2.9724685 6.8445238-6.3167808 12.3944136-15.9778739 21.4585526-30.4695135 29.0429486-9.847015 5.17967-20.0653033 7.029634-30.2835917 5.735-8.3607807-1.110091-14.8634834-4.80945-18.9514831-10.91467-5.94493707-9.064139-6.50213235-18.8687182-1.4856639-28.6727292 3.5302341-7.0296337 9.1033275-12.209304 12.6335616-14.7991392-.7431171-2.4047252-1.858078-6.474304-2.4152733-9.4337911-26.9398497 19.4234798-24.1527327 45.6914835-15.97787388 58.0853295 6.13085898 9.249817 18.57906908 14.984249 32.32759158 14.984249 3.7155856 0 7.4311713-.37022 11.1473273-1.294633 23.7814593-4.624909 41.8033331-18.684176 52.0216215-39.5873998zm32.699435-22.9382967c-14.120366-16.4639926-34.9287865-25.5281318-58.7102458-25.5281318h-2.9724685c-1.6721562-3.329707-5.2023903-5.5498902-9.1038978-5.5498902h-.3718438c-5.7590152.1851099-10.217718 4.9945605-10.0323665 10.7295605.1859219 5.5493223 4.8305466 9.9891209 10.4042103 9.9891209h.3712734c4.0874294-.1851099 7.6176635-2.7749451 9.1038978-6.2897619h3.3443123c14.1203662 0 27.4970446 4.0695787 39.5739816 12.0241941 9.289249 6.104652 15.977874 14.0592674 19.69346 23.6781685 3.15839 7.7695054 2.972468 15.3539014-.371844 21.8287734-5.20182 9.80401-13.933874 15.168791-25.453045 15.168791-7.431742 0-14.4916399-2.220183-18.2077959-3.885037-2.0434295 1.849963-5.7595855 4.809451-8.3607806 6.659982 7.9895072 3.699359 16.164366 5.734432 23.9673815 5.734432 17.835952 0 31.027279-9.804579 36.043747-19.60859 5.387742-10.72956 5.015898-29.2280584-8.917976-44.9516115zm-94.3821496 26.082326c.1859219 5.5498905 4.8305466 9.9891205 10.4042102 9.9891205h.3718438c5.7595855-.184542 10.2182883-4.99456 10.0323665-10.7289923-.1853516-5.5498901-4.8305466-9.9891209-10.4042103-9.9891209h-.3712734c-.3718437 0-.9296093 0-1.3003124.1845421-7.6176635-12.578956-10.7760539-26.2674358-9.6610931-41.066575.7425469-11.0992125 4.4587029-20.7186814 10.9614055-28.6732968 5.3877419-6.8445238 15.7919521-10.17423075 22.8524203-10.35877283 19.6934596-.3702198 28.0536705 24.04782043 28.6114355 33.85239923 2.415273.5547619 6.502703 1.8499634 9.28982 2.7749451-2.229922-29.9673626-20.808991-45.5063736-38.6443726-45.5063736-16.7215613 0-32.14224 12.0241941-38.2736692 29.7828205-8.5461323 23.6781685-2.9724686 46.4313553 7.4317416 64.3750916-.9284687 1.2946336-1.4862342 3.3297069-1.3003124 5.3647802z" fill-rule="nonzero"/><text font-family="Tungsten-Medium, Tungsten" font-size="120" font-weight="400" letter-spacing="1.89999998"><tspan x="182" y="115">CODE LAB</tspan><tspan x="491.08" y="115"/></text></g></svg>

<?xml version="1.0" encoding="UTF-8"?>
<svg width="485px" height="138px" viewBox="0 0 485 138" version="1.1" xmlns="http://www.w3.org/2000/svg" xmlns:xlink="http://www.w3.org/1999/xlink">
    <!-- Generator: Sketch 52.2 (67145) - http://www.bohemiancoding.com/sketch -->
    <title>Code Lab Logo</title>
    <desc>Created with Sketch.</desc>
    <g id="Page-1" stroke="none" stroke-width="1" fill="none" fill-rule="evenodd">
        <g id="Artboard" transform="translate(-7049.000000, -5304.000000)" fill="#4A90E2">
            <g id="Code-Lab-Logo" transform="translate(7049.000000, 5304.000000)">
                <path d="M101.162588,96.3780952 C106.55033,95.8227655 110.637759,91.1984249 110.451837,85.6485348 C110.266486,80.0992125 105.621291,75.6594139 100.047627,75.6594139 L99.6763537,75.6594139 C93.9161978,75.8445238 89.457495,80.6539743 89.6434169,86.3884066 C89.8293387,89.1633516 90.9437293,91.5680769 92.6158854,93.2329304 C86.2991046,105.627344 76.6380115,114.691483 62.1463719,122.275879 C52.2993569,127.455549 42.0810686,129.305513 31.8627802,128.010879 C23.5019995,126.900788 16.9992968,123.201429 12.9112971,117.096209 C6.96636003,108.03207 6.40916475,98.2274908 11.4256332,88.4234798 C14.9558673,81.3938461 20.5289607,76.2141758 24.0591948,73.6243406 C23.3160777,71.2196154 22.2011168,67.1500366 21.6439215,64.1905495 C-5.2959282,83.6140293 -2.5088112,109.882033 5.66604762,122.275879 C11.7969066,131.525696 24.2451167,137.260128 37.9936392,137.260128 C41.7092248,137.260128 45.4248105,136.889908 49.1409665,135.965495 C72.9224258,131.340586 90.9442996,117.281319 101.162588,96.3780952 Z M133.862023,73.4397985 C119.741657,56.9758059 98.9332365,47.9116667 75.1517772,47.9116667 L72.1793087,47.9116667 C70.5071525,44.5819597 66.9769184,42.3617765 63.0754109,42.3617765 L62.7035671,42.3617765 C56.9445519,42.5468864 52.4858491,47.356337 52.6712006,53.091337 C52.8571225,58.6406593 57.5017472,63.0804579 63.0754109,63.0804579 L63.4466843,63.0804579 C67.5341137,62.895348 71.0643478,60.3055128 72.5505821,56.790696 L75.8948944,56.790696 C90.0152606,56.790696 103.391939,60.8602747 115.468876,68.8148901 C124.758125,74.9195421 131.44675,82.8741575 135.162336,92.4930586 C138.320726,100.262564 138.134804,107.84696 134.790492,114.321832 C129.588672,124.125842 120.856618,129.490623 109.337447,129.490623 C101.905705,129.490623 94.8458071,127.27044 91.1296511,125.605586 C89.0862216,127.455549 85.3700656,130.415037 82.7688705,132.265568 C90.7583777,135.964927 98.9332365,138 106.736252,138 C124.572204,138 137.763531,128.195421 142.779999,118.39141 C148.167741,107.66185 147.795897,89.1633516 133.862023,73.4397985 Z M39.4798734,99.5221245 C39.6657953,105.072015 44.31042,109.511245 49.8840836,109.511245 L50.2559274,109.511245 C56.0155129,109.326703 60.4742157,104.516685 60.2882939,98.7822527 C60.1029423,93.2323626 55.4577473,88.7931318 49.8840836,88.7931318 L49.5128102,88.7931318 C49.1409665,88.7931318 48.5832009,88.7931318 48.2124978,88.9776739 C40.5948343,76.3987179 37.4364439,62.7102381 38.5514047,47.9110989 C39.2939516,36.8118864 43.0101076,27.1924175 49.5128102,19.2378021 C54.9005521,12.3932783 65.3047623,9.06357135 72.3652305,8.87902927 C92.0586901,8.50880947 100.418901,32.9268497 100.976666,42.7314285 C103.391939,43.2861904 107.479369,44.5813919 110.266486,45.5063736 C108.036564,15.539011 89.457495,0 71.6221134,0 C54.9005521,0 39.4798734,12.0241941 33.3484442,29.7828205 C24.8023119,53.460989 30.3759756,76.2141758 40.7801858,94.1579121 C39.8517171,95.4525457 39.2939516,97.487619 39.4798734,99.5226923 L39.4798734,99.5221245 Z" id="Shape" fill-rule="nonzero"></path>
                <text id="CODE-LAB" font-family="Tungsten-Medium, Tungsten" font-size="120" font-weight="400" letter-spacing="1.89999998">
                    <tspan x="182" y="115">CODE LAB</tspan>
                    <tspan x="491.08" y="115"></tspan>
                </text>
            </g>
        </g>
    </g>
</svg>
